icons/goal-16.svg

<svg width="16" height="16" viewBox="0 0 16 16" fill="none" xmlns="http://www.w3.org/2000/svg">
<g clip-path="url(#clip0_8406_104173)">
<path fill-rule="evenodd" clip-rule="evenodd" d="M13.6374 2.36261L13.3022 0.686787C13.2631 0.490991 13.0215 0.417849 12.8803 0.559039L11.5063 1.93305C11.3422 2.09714 11.25 2.3197 11.25 2.55177V3.68933L8.38852 6.55081C8.26461 6.51767 8.13437 6.5 8 6.5C7.17157 6.5 6.5 7.17157 6.5 8C6.5 8.82843 7.17157 9.5 8 9.5C8.82843 9.5 9.5 8.82843 9.5 8C9.5 7.86563 9.48233 7.73538 9.44919 7.61146L12.3107 4.74999H13.4482C13.6803 4.74999 13.9028 4.65781 14.0669 4.49371L15.441 3.1197C15.5821 2.97851 15.509 2.73694 15.3132 2.69778L13.6374 2.36261Z" fill="black"/>
<path fill-rule="evenodd" clip-rule="evenodd" d="M2 8C2 4.68629 4.68629 2 8 2C8.57535 2 9.13058 2.08077 9.65558 2.23112C10.0538 2.34516 10.469 2.1148 10.5831 1.7166C10.6971 1.31839 10.4668 0.903134 10.0686 0.789093C9.41062 0.600667 8.71643 0.5 8 0.5C3.85786 0.5 0.5 3.85786 0.5 8C0.5 12.1421 3.85786 15.5 8 15.5C12.1421 15.5 15.5 12.1421 15.5 8C15.5 7.28357 15.3993 6.58938 15.2109 5.93144C15.0969 5.53324 14.6816 5.30288 14.2834 5.41692C13.8852 5.53096 13.6548 5.94622 13.7689 6.34442C13.9192 6.86942 14 7.42465 14 8C14 11.3137 11.3137 14 8 14C4.68629 14 2 11.3137 2 8Z" fill="black"/>
<path fill-rule="evenodd" clip-rule="evenodd" d="M5 8C5 6.34315 6.34315 5 8 5C8.11722 5 8.23258 5.00669 8.34577 5.01964C8.7573 5.06674 9.12908 4.77131 9.17618 4.35978C9.22328 3.94825 8.92785 3.57646 8.51632 3.52937C8.34663 3.50995 8.17433 3.5 8 3.5C5.51472 3.5 3.5 5.51472 3.5 8C3.5 10.4853 5.51472 12.5 8 12.5C10.4853 12.5 12.5 10.4853 12.5 8C12.5 7.82324 12.4898 7.64857 12.4698 7.47659C12.4221 7.06514 12.0498 6.7703 11.6384 6.81804C11.2269 6.86579 10.9321 7.23805 10.9798 7.6495C10.9931 7.76421 11 7.88115 11 8C11 9.65685 9.65685 11 8 11C6.34315 11 5 9.65685 5 8Z" fill="black"/>
</g>
<defs>
<clipPath id="clip0_8406_104173">
<rect width="16" height="16" fill="white"/>
</clipPath>
</defs>
</svg>

<svg xmlns="http://www.w3.org/2000/svg" width="16" height="16" viewBox="0 0 16 16"><g fill-rule="evenodd"><path d="M13.637 2.363L13.302.687a.25.25 0 00-.422-.128l-1.374 1.374a.875.875 0 00-.256.619v1.137L8.389 6.551A1.502 1.502 0 006.5 8a1.5 1.5 0 102.95-.389l2.86-2.861h1.138a.875.875 0 00.619-.256L15.44 3.12a.25.25 0 00-.128-.422l-1.676-.335z"/><path d="M2 8a6 6 0 017.656-5.769.75.75 0 00.413-1.442 7.5 7.5 0 105.142 5.142.75.75 0 10-1.442.413A6 6 0 112 8z"/><path d="M5 8a3 3 0 013.346-2.98.75.75 0 10.17-1.49 4.5 4.5 0 103.953 3.947.75.75 0 10-1.49.172A3 3 0 115 8z"/></g></svg>
